material/.icons/material/shield-refresh.svg

<svg xmlns="http://www.w3.org/2000/svg" viewBox="0 0 24 24"><path d="M18 12c1 0 2 .2 2.9.7.1-.6.1-1.1.1-1.7V5l-9-4-9 4v6c0 5.5 3.8 10.7 9 12 .4-.1.7-.2 1-.3-1-1.2-1.5-2.7-1.5-4.2 0-3.6 2.9-6.5 6.5-6.5m0 2.5c1.1 0 2.1.4 2.8 1.2l1.2-1.2v4h-4l1.8-1.8c-.5-.4-1.1-.7-1.8-.7-1.4 0-2.5 1.1-2.5 2.5S16.6 21 18 21c.8 0 1.5-.4 2-1h1.7c-.6 1.5-2 2.5-3.7 2.5-2.2 0-4-1.8-4-4s1.8-4 4-4z"/></svg>

<?xml version="1.0" encoding="UTF-8"?><!DOCTYPE svg PUBLIC "-//W3C//DTD SVG 1.1//EN" "http://www.w3.org/Graphics/SVG/1.1/DTD/svg11.dtd"><svg xmlns="http://www.w3.org/2000/svg" xmlns:xlink="http://www.w3.org/1999/xlink" version="1.1" id="mdi-shield-refresh" width="24" height="24" viewBox="0 0 24 24"><path d="M18 12C19 12 20 12.2 20.9 12.7C21 12.1 21 11.6 21 11V5L12 1L3 5V11C3 16.5 6.8 21.7 12 23C12.4 22.9 12.7 22.8 13 22.7C12 21.5 11.5 20 11.5 18.5C11.5 14.9 14.4 12 18 12M18 14.5C19.1 14.5 20.1 14.9 20.8 15.7L22 14.5V18.5H18L19.8 16.7C19.3 16.3 18.7 16 18 16C16.6 16 15.5 17.1 15.5 18.5S16.6 21 18 21C18.8 21 19.5 20.6 20 20H21.7C21.1 21.5 19.7 22.5 18 22.5C15.8 22.5 14 20.7 14 18.5S15.8 14.5 18 14.5Z" /></svg>
